X:216
T:Bala Jan (excerpt)
L:1/8
M:4/4
I:linebreak $
K:Amin
V:1
|: G2 A2 A4 | Bc d2 d2 cB | A B2 c/d/ cB A2 | $ G2 A2 A4 |
Bc d2 d2 cB | A B2 c/d/ cB A2 | $ %6
d2 d2 dcBA | B2 c/d/c/d/ c/d/c/d/ BA | A4 z4 :| $
